!!!OTL: Der Holdseligen. / Volksweise zu diesem Liede.
!!!OTL-incipit: DER HOLDSELIGEN SONDER DANK
!!!COM: C. M. v. Weber
!!!ARE: Europa, Mitteleuropa, Deutschland
!!!SCT: F0926
!!!TXL: @@DE
!!!YEM: Copyright 1995, estate of Helmut Schaffrath.
**kern	**text
*ICvox	*
*clefG2	*
*M3/4	*
*k[b-]	*
*F:	*
=1	=1
!LO:TX:a:t=Ʒärtlich.	!
{2f	1._Der
4a	Hold-
=2	=2
4.cc/	-ſe-
8dd	-li-
4cc/	-gen
=3	=3
2g	ſon-
4b-/	-der
=4	=4
2a	Wank
4r}	.
=5	=5
{2f	ſag'
4a	ich
=6	=6
4.cc/	fröh-
8dd	-li-
4cc/	-chen
=7	=7
2g	Min-
4a	-ne-
=8	=8
2f	-dank.
4r}	.
=9	=9
{2f	Denn
4f	die
=10	=10
(>4.ff/	Klei-
8ee/)	.
4dd/	-ne,
=11	=11
(>4dd/	die
4cc/)	.
4b/	ich
=12	=12
(>4.cc/	mei-
8dd/)	.
4cc/}	-ne,
=13	=13
{2b-/	winkt
4b-/	mir
=14	=14
4.a	lieb-
8b-/	-li-
4a	-chen
=15	=15
2g	Ha-
4a	-be-
=16	=16
2f	-dank.
4r}	.
=17	=17
{2f	Denn
4f	die
=18	=18
(>4.ff/	Rei-
8ee/)	.
4dd/	-ne,
=19	=19
(>4dd/	die
4cc/)	.
4b/	ich
=20	=20
(>4.cc/	mei-
8dd/)	.
4cc/}	-ne,
=21	=21
{2b-/	winkt
4b-/	mir
=22	=22
4.a	lieb-
8b-/	-li-
4a	-chen
=23	=23
2g	Ha-
4a	-be-
=24	=24
2f	-dank.
4r}	.
==;	==;
!!!AGN: Liebes - Lied
!!!ONB: ESAC (Essen Associative Code) Database: FINK
!!!AMT: simple triple
!!!AIN: vox
!!!EED: Helmut Schaffrath
!!!EEV: 1.0
!!Text: J. H. Voß
!!!GTL: Minnelieder
!!!source: Musikalischer Hausschatz der Deutschen. Eine Sammlung von über 1000 Liedern und Gesängen mit Singstimmen und Klavierbegleitung. Leipzig, Litterarisches Verlags-Haus.
!!!page: 688
!!!URL-scan: https://www.digitale-sammlungen.de/en/view/bsb11144622?page=598
!!!ENC: Anna Maria Matuszewska
!!!EEV: 2024/08/08
*-	*-